X: 94
T: Speed the Plow
O: as played by Albert Quigley*
N: "Ethnic & Trad." New England Dance music - 1950's", tape available from D. Laufman, Canterbury, N.H.
B: NEFR #94
M: C|
L: 1/8
R: reel
K: A
|:\
"A"AB cd ef ec | ef ec ef ec | "D"df dB "A"cA cA | "Bm"BA GF "E7"EF GB |
"A"AB cd ef ec | ef ec ef ec | "D"df dB "A"cA cA | "E7"BA GB "A"A4 :|
|: {efg}\
"A"a2 a2 ae ce | aA gA fA eA | "D"df dB "A"cA cA | "Bm"BA GF "E7"EF GB |
"A"A a2 g ae ce | aA gA fA eA | "D"df dB "A"cA cA | "E7"BA GB "A"A4 :|


